src/resources/icons-social-media/src/social-media/pinterest-color.svg

<?xml version="1.0" encoding="UTF-8"?>
<svg width="48px" height="48px" viewBox="0 0 48 48" version="1.1" xmlns="http://www.w3.org/2000/svg" xmlns:xlink="http://www.w3.org/1999/xlink">
    <title>EC/Icons/Social/2XL_48x48px/Icon-Pinterest/Colour</title>
    <defs>
        <polygon id="path-1" points="2 2 46 2 46 45.9630124 2 45.9630124"></polygon>
        <polygon id="path-3" points="2 2 45.9643179 2 45.9643179 46 2 46"></polygon>
    </defs>
    <g id="EC/Icons/Social/2XL_48x48px/Icon-Pinterest/Colour" stroke="none" stroke-width="1" fill="none" fill-rule="evenodd">
        <mask id="mask-2" fill="white">
            <use xlink:href="#path-1"></use>
        </mask>
        <g id="Clip-2"></g>
        <path d="M23.9998624,2 C36.1496851,2 46,11.8409058 46,23.9821937 C46,36.1221066 36.1496851,45.9630124 23.9998624,45.9630124 C11.8500397,45.9630124 1.99972477,36.1221066 1.99972477,23.9821937 C1.99972477,11.8409058 11.8500397,2 23.9998624,2" id="Fill-1" fill="#FFFFFF" mask="url(#mask-2)"></path>
        <mask id="mask-4" fill="white">
            <use xlink:href="#path-3"></use>
        </mask>
        <g id="Clip-5"></g>
        <path d="M23.9998624,2 C11.8500397,2 1.99972477,11.8422808 1.99972477,23.9821937 C1.99972477,33.2992228 7.79459432,41.2591227 15.9784198,44.4615077 C15.7788815,42.7262523 15.6164985,40.0477439 16.0513545,38.148863 C16.4490552,36.4301076 18.6219592,27.2203288 18.6219592,27.2203288 C18.6219592,27.2203288 17.9710513,25.8989497 17.9710513,23.9643186 C17.9710513,20.9063091 19.7448786,18.626552 21.953562,18.626552 C23.8361033,18.626552 24.7415947,20.0373064 24.7415947,21.7203116 C24.7415947,23.6013175 23.5471167,26.4242013 22.9127223,29.0477095 C22.388418,31.2367164 24.017752,33.028347 26.1727665,33.028347 C30.0837185,33.028347 33.0891793,28.9033341 33.0891793,22.9688155 C33.0891793,17.7039241 29.3048308,14.0312876 23.8911484,14.0312876 C17.6270196,14.0312876 13.9500091,18.7173022 13.9500091,23.5655674 C13.9500091,25.4465733 14.6752278,27.4733296 15.5793431,28.5774581 C15.7609918,28.7947087 15.7788815,28.9927094 15.7252125,29.211335 C15.5628296,29.8988372 15.1816425,31.3989669 15.1100839,31.7069678 C15.0192595,32.1057191 14.7839419,32.1950944 14.3669755,31.9970937 C11.6147221,30.7114647 9.89456367,26.7129522 9.89456367,23.4748171 C9.89456367,16.5461705 14.9284352,10.1771506 24.4347184,10.1771506 C32.0570842,10.1771506 37.9964471,15.6056675 37.9964471,22.8780652 C37.9964471,30.4584639 33.2157829,36.555233 26.5897328,36.555233 C24.3617837,36.555233 22.2618144,35.3988544 21.5558614,34.0238501 C21.5558614,34.0238501 20.4508316,38.2203632 20.1797347,39.2516164 C19.6912097,41.1697474 18.3508623,43.5567549 17.4453709,45.0238844 C19.509561,45.6563864 21.682465,46.0001375 23.9640831,46.0001375 C36.1139058,46.0001375 45.9643179,36.1578567 45.9643179,24.0179438 C46,11.8422808 36.1496851,2 23.9998624,2" id="Fill-4" fill="#E60023" mask="url(#mask-4)"></path>
    </g>
</svg>

<?xml version="1.0" encoding="UTF-8" ?>
<svg
  xmlns="http://www.w3.org/2000/svg"
  xmlns:xlink="http://www.w3.org/1999/xlink"
  viewBox="0 0 48 48"
><defs><style
    >.cls-1{fill:none;}.cls-2{mask:url(#mask);}.cls-3{fill:#e60023;}.cls-3,.cls-4{fill-rule:evenodd;}.cls-4{fill:#fff;}.cls-5{mask:url(#mask-1);}</style><mask
      id="mask"
      x="2"
      y="2"
      width="44"
      height="43.96"
      maskUnits="userSpaceOnUse"
    /><mask
      id="mask-1"
      x="2"
      y="2"
      width="43.96"
      height="44"
      maskUnits="userSpaceOnUse"
    /></defs><g id="transparant_bg"><rect
      class="cls-1"
      y="0"
      width="48"
      height="48"
    /></g><g id="Layer_1"><g
      id="Component_type_Icons_Icon_type_Social_Size_2XL_48x48px_Subject_Icon-Pinterest_Style_Colour_Webtools_False"
    ><g id="Object"><g class="cls-2"><path
            id="Fill_1"
            class="cls-4"
            d="M24,2c12.15,0,22,9.84,22,21.98s-9.85,21.98-22,21.98S2,36.12,2,23.98,11.85,2,24,2Z"
          /></g></g><g class="cls-5"><path
          id="Fill_4"
          class="cls-3"
          d="M24,2C11.85,2,2,11.84,2,23.98c0,9.32,5.79,17.28,13.98,20.48-.2-1.74-.36-4.41,.07-6.31,.4-1.72,2.57-10.93,2.57-10.93,0,0-.65-1.32-.65-3.26,0-3.06,1.77-5.34,3.98-5.34,1.88,0,2.79,1.41,2.79,3.09,0,1.88-1.19,4.7-1.83,7.33-.52,2.19,1.1,3.98,3.26,3.98,3.91,0,6.92-4.13,6.92-10.06,0-5.26-3.78-8.94-9.2-8.94-6.26,0-9.94,4.69-9.94,9.53,0,1.88,.73,3.91,1.63,5.01,.18,.22,.2,.42,.15,.63-.16,.69-.54,2.19-.62,2.5-.09,.4-.33,.49-.74,.29-2.75-1.29-4.47-5.28-4.47-8.52,0-6.93,5.03-13.3,14.54-13.3,7.62,0,13.56,5.43,13.56,12.7s-4.78,13.68-11.41,13.68c-2.23,0-4.33-1.16-5.03-2.53,0,0-1.11,4.2-1.38,5.23-.49,1.92-1.83,4.31-2.73,5.77,2.06,.63,4.24,.98,6.52,.98,12.15,0,22-9.84,22-21.98,.04-12.18-9.81-22.02-21.96-22.02Z"
        /></g></g></g></svg>
